brandFactory_export/2.Regular/Planta _2Regular.svg

<?xml version="1.0" encoding="UTF-8"?>
<svg width="24px" height="24px" viewBox="0 0 24 24" version="1.1" xmlns="http://www.w3.org/2000/svg" xmlns:xlink="http://www.w3.org/1999/xlink">
    <title>2.Regular/Planta _2Regular</title>
    <g id="Symbols" stroke="none" stroke-width="1" fill="none" fill-rule="evenodd">
        <g id="2.Regular/Planta-_2Regular" fill="#5CB615" fill-rule="nonzero">
            <path d="M18.2722689,5.68067227 C18.2655462,5.71428571 18.2621849,5.74789916 18.2588235,5.78151261 C18.1983193,7.25714286 17.4285714,7.94621849 15.8487395,7.94621849 C15.4487395,7.95294118 15.0521008,7.89243697 14.6722689,7.76134454 C15.2605042,6.95462185 15.989916,6.3092437 16.9008403,6.05042017 C17.2806723,5.94957983 17.5092437,5.55966387 17.4084034,5.17647059 C17.4084034,5.17310924 17.405042,5.16638655 17.405042,5.16302521 C17.2806723,4.77983193 16.8739496,4.56134454 16.4840336,4.67563025 C15.3042017,5.00840336 14.3731092,5.76134454 13.6302521,6.71260504 C13.492437,6.35630252 13.4218487,5.97647059 13.4252101,5.59327731 C13.4252101,3.99327731 14.194958,3.25042017 15.8487395,3.25042017 L17.9966387,3.25042017 C18.1478992,3.25042017 18.2722689,3.36806723 18.2722689,3.51596639 L18.2722689,5.68067227 L18.2722689,5.68067227 Z M17.5798319,13.3848739 L17.5798319,15.1294118 C17.5798319,15.2773109 17.4554622,15.394958 17.3042017,15.394958 L6.44369748,15.394958 C6.29579832,15.3983193 6.17142857,15.2773109 6.16806723,15.1294118 L6.16806723,13.3848739 C6.16806723,13.2369748 6.29243697,13.1193277 6.44369748,13.1193277 L17.307563,13.1193277 C17.4554622,13.1193277 17.5798319,13.2369748 17.5798319,13.3848739 Z M15.4352941,22.1915966 L8.31260504,22.1915966 C8.26890756,22.1915966 8.23193277,22.1546218 8.22857143,22.0336134 L7.63361345,16.8268908 L16.1109244,16.8268908 L15.512605,22.1142857 C15.5159664,22.1579832 15.4789916,22.1915966 15.4352941,22.1915966 Z M7.91596639,6.14117647 C6.32941176,6.14117647 5.55966387,5.45210084 5.49915966,3.99663866 C5.49915966,3.95294118 5.49579832,3.9092437 5.48571429,3.86554622 L5.48571429,1.71428571 C5.48571429,1.55966387 5.61344538,1.43529412 5.76806723,1.43529412 L7.92268908,1.43529412 C9.57983193,1.43529412 10.3529412,2.18487395 10.3529412,3.79159664 C10.3529412,4.20168067 10.2890756,4.55798319 10.1747899,4.86722689 C8.99159664,3.16638655 7.75462185,2.82689076 7.66386555,2.80336134 C7.28067227,2.70588235 6.88739496,2.92773109 6.77310924,3.30420168 C6.66218487,3.67731092 6.89411765,4.07058824 7.27731092,4.18487395 C7.29411765,4.18823529 8.21848739,4.48739496 9.13277311,5.9394958 C8.79327731,6.07058824 8.39327731,6.14453782 7.91596639,6.14117647 Z M17.9966387,1.82184874 L15.8487395,1.82184874 C13.3647059,1.82184874 11.9428571,3.19663866 11.9428571,5.59663866 C11.9428571,6.49411765 12.1445378,7.25714286 12.5781513,7.91932773 L12.7361345,8.11428571 C12.4571429,8.64201681 12.2151261,9.18991597 12.010084,9.7512605 C11.7613445,8.36302521 11.4084034,7.23697479 11.005042,6.34285714 L11.0386555,6.30252101 C11.0521008,6.28907563 11.0588235,6.27563025 11.0722689,6.26218487 C11.5831933,5.61680672 11.8386555,4.78319328 11.8386555,3.78823529 C11.8352941,1.38151261 10.410084,0 7.92268908,0 L5.76806723,0 C4.79663866,0 4.00336134,0.766386555 4.00336134,1.71428571 L4.00336134,3.95966387 C4.00336134,4.01008403 4.01008403,4.06386555 4.02016807,4.11428571 C4.14789916,6.31596639 5.56302521,7.57647059 7.91596639,7.57647059 C8.61848739,7.57647059 9.2302521,7.45210084 9.77478992,7.21680672 C10.2218487,8.29579832 10.5983193,9.74453782 10.7831933,11.6907563 L6.44369748,11.6907563 C5.47563025,11.6907563 4.68907563,12.4537815 4.68907563,13.3882353 L4.68907563,15.1327731 C4.68907563,15.9697479 5.3210084,16.6621849 6.14453782,16.8 L6.75630252,22.1142857 C6.75630252,22.9478992 7.45546218,23.6235294 8.31596639,23.6235294 L15.4386555,23.6235294 C16.2991597,23.6235294 16.9983193,22.9478992 16.994958,22.1915966 L17.610084,16.7966387 C18.4336134,16.6588235 19.0655462,15.9663866 19.0655462,15.1294118 L19.0655462,13.3848739 C19.0655462,12.4504202 18.2789916,11.687395 17.307563,11.687395 L12.9411765,11.687395 C13.1563025,10.887395 13.4756303,9.91932773 13.9327731,9.00168067 C14.4739496,9.24033613 15.1092437,9.37478992 15.8487395,9.37478992 C18.1848739,9.37478992 19.5932773,8.13109244 19.7344538,5.93277311 C19.7478992,5.8789916 19.7546218,5.82521008 19.7546218,5.77142857 L19.7546218,3.51596639 C19.7546218,2.58487395 18.9647059,1.82184874 17.9966387,1.82184874 L17.9966387,1.82184874 Z" id="Planta-_2Regular"></path>
        </g>
    </g>
</svg>

<svg width="24" height="24" viewBox="0 0 24 24" xmlns="http://www.w3.org/2000/svg"><path d="M18.272 5.68c-.006.034-.01.068-.013.102-.06 1.475-.83 2.164-2.41 2.164a3.42 3.42 0 01-1.177-.185c.589-.806 1.318-1.452 2.229-1.71.38-.101.608-.491.507-.875l-.003-.013a.748.748 0 00-.921-.487c-1.18.332-2.11 1.085-2.854 2.037a3.03 3.03 0 01-.205-1.12c0-1.6.77-2.343 2.424-2.343h2.148a.27.27 0 01.275.266v2.165zm-.692 7.705v1.744a.27.27 0 01-.276.266H6.444a.273.273 0 01-.276-.266v-1.744a.27.27 0 01.276-.266h10.864a.27.27 0 01.272.266zm-2.145 8.807H8.313c-.044 0-.081-.037-.084-.158l-.595-5.207h8.477l-.598 5.287c.003.044-.034.078-.078.078zM7.916 6.142c-1.587 0-2.356-.69-2.417-2.145a.579.579 0 00-.013-.131V1.714c0-.154.127-.279.282-.279h2.155c1.657 0 2.43.75 2.43 2.357 0 .41-.064.766-.178 1.075-1.183-1.7-2.42-2.04-2.511-2.064a.741.741 0 00-.89.501c-.112.373.12.767.503.88.017.004.941.303 1.856 1.755-.34.132-.74.206-1.217.202zm10.08-4.32H15.85c-2.484 0-3.906 1.375-3.906 3.775 0 .897.202 1.66.635 2.322l.158.195a13.175 13.175 0 00-.726 1.637c-.249-1.388-.602-2.514-1.005-3.408l.034-.04c.013-.014.02-.027.033-.04.511-.646.767-1.48.767-2.475C11.835 1.382 10.41 0 7.923 0H5.768c-.971 0-1.765.766-1.765 1.714V3.96c0 .05.007.104.017.154.128 2.202 1.543 3.462 3.896 3.462.702 0 1.314-.124 1.859-.36.447 1.08.823 2.529 1.008 4.475h-4.34c-.967 0-1.754.763-1.754 1.697v1.745c0 .837.632 1.53 1.456 1.667l.611 5.314c0 .834.7 1.51 1.56 1.51h7.123c.86 0 1.56-.676 1.556-1.432l.615-5.395c.824-.138 1.456-.83 1.456-1.668v-1.744c0-.935-.787-1.698-1.758-1.698H12.94c.215-.8.535-1.768.992-2.685.54.238 1.176.373 1.916.373 2.336 0 3.744-1.244 3.885-3.442a.663.663 0 00.02-.162V3.516c0-.931-.79-1.694-1.757-1.694z" fill="#5CB615" fill-rule="nonzero"/></svg>
